!!! OTL: Literature49
!!! Chapter: 5
!!! Section: I
!!! Page: 355
!!! Mode: 
!!! Encoder: DJB
**kern
*staff1
*I"Piano
=1-
*clefF4
*k[b-e-]
*B-:
*M3/4
4r
4r
8D\L
8E-\J
=2
4.F\
8G\
8F\L
8E-\J
=3
8D\
4.F\
8D\L
8F\J
=4
4.d\
8B-\
8F\L
8D\J
=5
2C/
8A\L
8B-\J
=6
4.c\
8B-\
8A\L
8C\J
=7
8G\
4.F\
8F\L
8G\J
=8
4.A\
8G\
8F/L
8AA/J
=9
2BB-/
4r
==
*-
